icons-dark/status/22/security-high.svg

<?xml version="1.0" encoding="UTF-8" standalone="no"?>
<!-- Created with Inkscape (http://www.inkscape.org/) -->

<svg
   xmlns:dc="http://purl.org/dc/elements/1.1/"
   xmlns:cc="http://creativecommons.org/ns#"
   xmlns:rdf="http://www.w3.org/1999/02/22-rdf-syntax-ns#"
   xmlns:svg="http://www.w3.org/2000/svg"
   xmlns="http://www.w3.org/2000/svg"
   xmlns:sodipodi="http://sodipodi.sourceforge.net/DTD/sodipodi-0.dtd"
   xmlns:inkscape="http://www.inkscape.org/namespaces/inkscape"
   width="22"
   height="22"
   id="svg952"
   version="1.1"
   inkscape:version="0.91 r13725"
   sodipodi:docname="security-high.svg">
  <defs
     id="defs954" />
  <sodipodi:namedview
     id="base"
     pagecolor="#ffffff"
     bordercolor="#666666"
     borderopacity="1.0"
     inkscape:pageopacity="0.0"
     inkscape:pageshadow="2"
     inkscape:zoom="32"
     inkscape:cx="5.695636"
     inkscape:cy="13.499783"
     inkscape:document-units="px"
     inkscape:current-layer="layer1"
     showgrid="true"
     inkscape:window-width="1920"
     inkscape:window-height="1021"
     inkscape:window-x="-4"
     inkscape:window-y="0"
     inkscape:window-maximized="1"
     showguides="true"
     inkscape:guide-bbox="true"
     inkscape:showpageshadow="false"
     borderlayer="true"
     inkscape:snap-bbox="true"
     inkscape:bbox-nodes="true"
     inkscape:object-nodes="true">
    <inkscape:grid
       type="xygrid"
       id="grid4063" />
    <sodipodi:guide
       position="3,5"
       orientation="12,0"
       id="guide3284" />
    <sodipodi:guide
       position="7,3"
       orientation="0,12"
       id="guide3286" />
    <sodipodi:guide
       position="19,2"
       orientation="-12,0"
       id="guide3288" />
    <sodipodi:guide
       position="11,19"
       orientation="0,1"
       id="guide4143" />
  </sodipodi:namedview>
  <metadata
     id="metadata957">
    <rdf:RDF>
      <cc:Work
         rdf:about="">
        <dc:format>image/svg+xml</dc:format>
        <dc:type
           rdf:resource="http://purl.org/dc/dcmitype/StillImage" />
        <dc:title />
      </cc:Work>
    </rdf:RDF>
  </metadata>
  <g
     inkscape:label="Capa 1"
     inkscape:groupmode="layer"
     id="layer1"
     transform="translate(0,-1030.3622)">
    <path
       style="fill:#f2f2f2;fill-opacity:1;fill-rule:evenodd;stroke:none;stroke-width:1px;stroke-linecap:butt;stroke-linejoin:miter;stroke-opacity:1"
       d="m 11,3 -7,1 0,8 c 0.016813,3.5683 2.9950654,5.792 7,7 4.004935,-1.208 6.98319,-3.4317 7,-7 l 0,-8 z m 3.576172,2.734375 0.847656,0.5292969 -5.273437,8.4375001 -3.4277348,-2.28711 0.5546876,-0.832031 2.5722656,1.714844 z"
       transform="translate(0,1030.3622)"
       id="path4145-9"
       inkscape:connector-curvature="0"
       sodipodi:nodetypes="cccccccccccccc" />
    <path
       style="fill:#2ecc71;fill-opacity:1;fill-rule:evenodd;stroke:none;stroke-width:1px;stroke-linecap:butt;stroke-linejoin:miter;stroke-opacity:1"
       d="m 14.576172,1036.0966 0.847656,0.5293 -5.273437,8.4375 -3.4277348,-2.2871 0.5546876,-0.8321 2.5722656,1.7149 z"
       id="path4145-9-8"
       inkscape:connector-curvature="0"
       sodipodi:nodetypes="ccccccc" />
  </g>
</svg>

<?xml version="1.0" encoding="UTF-8" standalone="no"?>
<!-- Created with Inkscape (http://www.inkscape.org/) -->

<svg
   xmlns:dc="http://purl.org/dc/elements/1.1/"
   xmlns:cc="http://creativecommons.org/ns#"
   xmlns:rdf="http://www.w3.org/1999/02/22-rdf-syntax-ns#"
   xmlns:svg="http://www.w3.org/2000/svg"
   xmlns="http://www.w3.org/2000/svg"
   xmlns:sodipodi="http://sodipodi.sourceforge.net/DTD/sodipodi-0.dtd"
   xmlns:inkscape="http://www.inkscape.org/namespaces/inkscape"
   width="22"
   height="22"
   id="svg952"
   version="1.1"
   inkscape:version="0.91 r13725"
   sodipodi:docname="security-high.svg">
  <defs
     id="defs954" />
  <sodipodi:namedview
     id="base"
     pagecolor="#ffffff"
     bordercolor="#666666"
     borderopacity="1.0"
     inkscape:pageopacity="0.0"
     inkscape:pageshadow="2"
     inkscape:zoom="32"
     inkscape:cx="1.008136"
     inkscape:cy="13.499783"
     inkscape:document-units="px"
     inkscape:current-layer="layer1"
     showgrid="true"
     inkscape:window-width="1366"
     inkscape:window-height="709"
     inkscape:window-x="-4"
     inkscape:window-y="0"
     inkscape:window-maximized="1"
     showguides="true"
     inkscape:guide-bbox="true"
     inkscape:showpageshadow="false"
     borderlayer="true"
     inkscape:snap-bbox="true"
     inkscape:bbox-nodes="true"
     inkscape:object-nodes="true">
    <inkscape:grid
       type="xygrid"
       id="grid4063" />
    <sodipodi:guide
       position="3,5"
       orientation="12,0"
       id="guide3284" />
    <sodipodi:guide
       position="7,3"
       orientation="0,12"
       id="guide3286" />
    <sodipodi:guide
       position="19,2"
       orientation="-12,0"
       id="guide3288" />
    <sodipodi:guide
       position="11,19"
       orientation="0,1"
       id="guide4143" />
  </sodipodi:namedview>
  <metadata
     id="metadata957">
    <rdf:RDF>
      <cc:Work
         rdf:about="">
        <dc:format>image/svg+xml</dc:format>
        <dc:type
           rdf:resource="http://purl.org/dc/dcmitype/StillImage" />
        <dc:title />
      </cc:Work>
    </rdf:RDF>
  </metadata>
  <g
     inkscape:label="Capa 1"
     inkscape:groupmode="layer"
     id="layer1"
     transform="translate(0,-1030.3622)">
    <path
       style="fill:#2ecc71;fill-opacity:1;fill-rule:evenodd;stroke:none;stroke-width:1px;stroke-linecap:butt;stroke-linejoin:miter;stroke-opacity:1"
       d="M 11 3 L 4 4 L 4 12 C 4.016813 15.5683 6.9950654 17.792 11 19 C 15.004935 17.792 17.98319 15.5683 18 12 L 18 4 L 11 3 z M 14.576172 5.734375 L 15.423828 6.2636719 L 10.150391 14.701172 L 6.7226562 12.414062 L 7.2773438 11.582031 L 9.8496094 13.296875 L 14.576172 5.734375 z "
       transform="translate(0,1030.3622)"
       id="path4145-9" />
  </g>
</svg>
